X: 2143
T: Şeb-i Vuslat
C: Nasib´in Mehmet Yürü
O: Turkey
F: http://compmusic.upf.edu/node/140
N: mahur--sarki--duyek--seb-i_vuslat--nasibin_mehmet_yuru
N: makam= mahur
N: form= sarki
N: usul= duyek = 8/4
M: 8/4
L: 1/16
K: C ^9/8f   
Q: 1/4=120
%%MIDI tuningsystem comma53
d2 g4 g2 d4 g4  | d2 g4 g2 d4 g4  | d2 g4 a2 gf ef g4  | \
w:   |   |   | 
d2 a4 gf ag fe d4  | 
w:   | 
d2 f2 e2 ed d2 dc BA B2  | A2 g4 =fe dc BA G4  | \
w:   |   | 
d2 g4 g2 d4 g4  | 
w:   | 
d2 g4 a2 gf ef g2 fe  | e2 ag fc' ba ag fe d4  | 
w:   |   | 
c2 =f4 fe ed dc BA B2  | A2 g4 =fe dc BA G4  | \
w:   |   | 
d2 g4 g2 d4 g4  | 
w:   | 
d2 g4 g2 d4 g4  | G2 d4 _7/8e2 d^c Bc d4  | \
w:   |   | 
d2 _7/8e4 ed d3^c B4  | Bc de fg ab ag fa g4  | 
w:   |   | 
b2 c'4 ba a3g g2 fe  | e2 ag fc' ba ag fe d4  | 
w:   |   | 
c2 =f4 fe ed dc BA B2  | A2 g4 =fe dc BA G4  | \
w:   |   | 
d2 g4 g2 d4 g4  | 
w:   | 
d2 g4 g2 d4 g4  | G2 d4 _7/8e2 d^c Bc d4  | \
w:   |   | 
d2 _7/8e4 ed d3^c B4  | Bc de fg ab ag fa g4  | 
w:   |   | 
b2 c'4 ba a3g g2 fe  | e2 ag fc' ba ag fe d4  | 
w:   |   | 
|


